images/skills/1-skills-frontend-md.svg

<?xml version="1.0" encoding="UTF-8" standalone="no"?>
<svg width="210px" height="163px" viewBox="0 0 210 163" version="1.1" xmlns="http://www.w3.org/2000/svg" xmlns:xlink="http://www.w3.org/1999/xlink" xmlns:sketch="http://www.bohemiancoding.com/sketch/ns">
    <!-- Generator: Sketch 3.2.2 (9983) - http://www.bohemiancoding.com/sketch -->
    <title>frontend</title>
    <desc>Created with Sketch.</desc>
    <defs></defs>
    <g id="Medium" stroke="none" stroke-width="1" fill="none" fill-rule="evenodd" sketch:type="MSPage">
        <g id="Group" sketch:type="MSLayerGroup" fill="#FFFFFF">
            <g id="frontend" sketch:type="MSShapeGroup">
                <path d="M105.0385,58.9769108 C85.5765,58.9769108 68.895,76.5473077 64.8985,81.2447169 C68.895,85.9416246 85.5765,103.512523 105.0385,103.512523 C124.5005,103.512523 141.182,85.9416246 145.1785,81.2447169 C141.182,76.5473077 124.5005,58.9769108 105.0385,58.9769108 L105.0385,58.9769108 Z M105.0385,97.9454462 C95.829,97.9454462 88.357,90.4644985 88.357,81.2447169 C88.357,72.0244338 95.829,64.5439877 105.0385,64.5439877 C114.248,64.5439877 121.72,72.0244338 121.72,81.2447169 C121.72,90.4644985 114.248,97.9454462 105.0385,97.9454462 L105.0385,97.9454462 Z" id="Fill-1"></path>
                <path d="M105.0385,68.3712277 C97.914,68.3712277 92.006,74.1118369 92.006,81.2447169 C92.006,88.5511292 97.914,94.29224 105.0385,94.29224 C112.1625,94.29224 118.071,88.5511292 118.071,81.2447169 C118.071,74.1118369 112.1625,68.3712277 105.0385,68.3712277 L105.0385,68.3712277 Z M105.0385,90.6385323 C99.9995,90.6385323 95.829,86.4637262 95.829,81.2447169 C95.829,80.2010154 96.5235,79.50488 97.5665,79.50488 C98.609,79.50488 99.478,80.2010154 99.478,81.2447169 C99.478,84.3758215 101.9105,86.8112923 105.0385,86.8112923 C108.166,86.8112923 110.5985,84.3758215 110.5985,81.2447169 C110.5985,78.2871446 108.166,75.67764 105.0385,75.67764 C103.9955,75.67764 103.127,74.9820062 103.127,73.9378031 C103.127,72.8941015 103.9955,72.0244338 105.0385,72.0244338 C110.0775,72.0244338 114.248,76.1997415 114.248,81.2447169 C114.248,86.4637262 110.0775,90.6385323 105.0385,90.6385323 L105.0385,90.6385323 Z" id="Fill-2"></path>
                <path d="M0,0 L0,163 L102.5,163 L102.5,157.750898 L40.253,121.820182 C39.478,121.372308 39,120.543766 39,119.646514 L39,46.3381415 C39,45.4408892 39.4835,44.6123477 40.2585,44.1644738 L103.761,7.51003692 C104.533,7.06467077 105.484,7.06467077 106.256,7.51003692 L169.7515,44.1644738 C170.5265,44.6123477 171,45.4408892 171,46.3381415 L171,119.646514 C171,120.543766 170.5275,121.372809 169.752,121.820182 L114.625,153.628252 C113.428,154.318871 111.901,153.905603 111.2125,152.70492 C110.524,151.504237 110.9315,149.971535 112.1285,149.280917 L166,118.196065 L166,47.7880892 L105,12.57708 L44,47.7880892 L44,118.196065 L106.247,154.127283 C107.022,154.575157 107.5,155.403698 107.5,156.300951 L107.5,163 L210,163 L210,0 L0,0 L0,0 Z M105.0385,107.339763 C80.8845,107.339763 61.7705,83.5061538 60.9015,82.4624523 C60.38,81.7663169 60.38,80.8966492 60.9015,80.2010154 C61.7705,79.1568123 80.8845,55.3237046 105.0385,55.3237046 C129.192,55.3237046 148.306,79.1568123 149.175,80.2010154 C149.6965,80.8966492 149.6965,81.7663169 149.175,82.4624523 C148.306,83.5061538 129.192,107.339763 105.0385,107.339763 L105.0385,107.339763 Z" id="Fill-3"></path>
            </g>
        </g>
    </g>
</svg>

<svg width="210" height="163" viewBox="0 0 210 163" xmlns="http://www.w3.org/2000/svg"><title>frontend</title><desc>Created with Sketch.</desc><g fill="#fff"><path d="M105.038 58.977c-19.462 0-36.143 17.57-40.14 22.268 3.997 4.697 20.678 22.268 40.14 22.268 19.463 0 36.144-17.57 40.14-22.268-3.996-4.698-20.677-22.268-40.14-22.268zm0 38.968c-9.21 0-16.68-7.48-16.68-16.7 0-9.22 7.47-16.7 16.68-16.7s16.682 7.48 16.682 16.7c0 9.22-7.472 16.7-16.681 16.7h-.002z"/><path d="M105.038 68.37c-7.124 0-13.032 5.742-13.032 12.875 0 7.306 5.908 13.047 13.032 13.047s13.033-5.74 13.033-13.047c0-7.133-5.907-12.874-13.03-12.874h-.002zm0 22.27c-5.038 0-9.21-4.176-9.21-9.395 0-1.044.695-1.74 1.74-1.74 1.04 0 1.91.696 1.91 1.74 0 3.13 2.433 5.566 5.56 5.566 3.128 0 5.56-2.434 5.56-5.565 0-2.958-2.432-5.567-5.56-5.567-1.042 0-1.91-.696-1.91-1.74s.868-1.914 1.91-1.914c5.04 0 9.21 4.176 9.21 9.22 0 5.22-4.17 9.395-9.21 9.395z"/><path d="M0 0v163h102.5v-5.25l-62.247-35.93c-.775-.448-1.253-1.276-1.253-2.173v-73.31c0-.896.483-1.725 1.258-2.173L103.76 7.51c.773-.445 1.724-.445 2.496 0l63.495 36.654c.776.448 1.25 1.277 1.25 2.174v73.31c0 .896-.472 1.725-1.248 2.172l-55.127 31.808c-1.197.69-2.724.278-3.412-.923-.69-1.2-.28-2.733.916-3.424L166 118.197V47.788l-61-35.21-61 35.21v70.408l62.247 35.93c.775.45 1.253 1.278 1.253 2.175v6.7H210V0H0zm105.038 107.34c-24.153 0-43.267-23.834-44.136-24.878-.522-.696-.522-1.565 0-2.26.868-1.045 19.983-24.878 44.136-24.878 24.154 0 43.268 23.833 44.137 24.877.52.697.52 1.566 0 2.262-.87 1.044-19.983 24.878-44.137 24.878z"/></g></svg>
